X:1
T:Kat:y is Waiting -- Jig
R:jig
C:JAS. HAND.
B:Ryan's Mammoth Collection
N: 83 421
Z: Contributed by Ray Davies,  ray:davies99.freeserve.co.uk
M:6/8
L:1/8
K:Edor
u(d/c/)|\
BEE cEE | BAF BAF | D>DD FED | AdB AGF |
B>EE c>EE | BEE {d}BAF | ABc dAF | FEE E2 :|
|:ud|\
ke3  efg | fed ecA | Add {e}dcd | ABc dAF |
E2e efg | fed ecA | {e}dcd AGF | {c}BAF E2 :|
